svg/cpp.svg

<svg viewBox="0 0 20 20" xmlns="http://www.w3.org/2000/svg">
<rect width="100%" height="100%" fill="#659AD2"/>
<path d="M3.90159 5.1569L8.84841 2.30802C9.19853 2.10623 9.5957 2 9.99999 2C10.4043 2 10.8015 2.10623 11.1516 2.30802L16.0984 5.1569C16.4497 5.35938 16.7412 5.65089 16.9435 6.00195C17.1457 6.35301 17.2514 6.75116 17.25 7.15612V12.8539C17.2504 13.2586 17.1442 13.6564 16.9421 14.0073C16.74 14.3582 16.449 14.6498 16.0984 14.8531L11.1516 17.692C10.8015 17.8938 10.4043 18 9.99999 18C9.5957 18 9.19853 17.8938 8.84841 17.692L3.90159 14.8431C3.55095 14.6398 3.25999 14.3482 3.05787 13.9973C2.85575 13.6464 2.74958 13.2486 2.75 12.8439V7.14612C2.75033 6.74286 2.8569 6.34678 3.05903 5.99763C3.26116 5.64847 3.55173 5.35853 3.90159 5.1569ZM14.356 9.15533H13.7452V9.65514H13.2445V10.2649H13.7452V10.7947H14.356V10.2949H14.8567V9.69512H14.356V9.15533ZM16.3588 9.15533H15.7079V9.65514H15.2072V10.2649H15.7079V10.7947H16.3187V10.2949H16.8194V9.69512H16.3187L16.3588 9.15533ZM12.1129 11.1545C11.8598 11.6094 11.4649 11.9694 10.9881 12.1797C10.5114 12.39 9.97886 12.4392 9.47153 12.3198C8.96419 12.2004 8.50978 11.919 8.17733 11.5182C7.84489 11.1175 7.6526 10.6193 7.62969 10.0995C7.60678 9.57972 7.7545 9.06665 8.05039 8.6383C8.34629 8.20994 8.77419 7.88973 9.26905 7.72633C9.76392 7.56292 10.2987 7.56525 10.7921 7.73297C11.2855 7.90068 11.7106 8.22461 12.0028 8.65553C12.04 8.70084 12.0703 8.75136 12.0929 8.80547L14.2158 7.57595C13.6815 6.65467 12.8577 5.93502 11.8721 5.52852C10.8865 5.12202 9.79407 5.05137 8.76414 5.3275C7.73422 5.60364 6.82429 6.21115 6.17534 7.0559C5.52639 7.90064 5.17467 8.93546 5.17467 10C5.17467 11.0645 5.52639 12.0994 6.17534 12.9441C6.82429 13.7889 7.73422 14.3964 8.76414 14.6725C9.79407 14.9486 10.8865 14.878 11.8721 14.4715C12.8577 14.065 13.6815 13.3453 14.2158 12.424L12.1129 11.1545Z" fill="white"/>
</svg>

<svg xmlns="http://www.w3.org/2000/svg" viewBox="0 0 20 20">
  <rect width="100%" height="100%" fill="#659AD2"/>
  <path fill="#fff" d="M3.9 5.16 8.85 2.3a2.3 2.3 0 0 1 2.3 0l4.95 2.85a2.3 2.3 0 0 1 1.15 2v5.7a2.3 2.3 0 0 1-1.15 2l-4.95 2.83a2.3 2.3 0 0 1-2.3 0L3.9 14.84a2.31 2.31 0 0 1-1.15-2v-5.7A2.3 2.3 0 0 1 3.9 5.17Zm10.46 4h-.61v.5h-.5v.6h.5v.53h.6v-.5h.5v-.6h-.5v-.53Zm2 0h-.65v.5h-.5v.6h.5v.53h.6v-.5h.5v-.6h-.5l.05-.53Zm-4.25 2a2.4 2.4 0 1 1-.02-2.35l2.13-1.23a4.84 4.84 0 1 0 0 4.84l-2.1-1.27Z"/>
</svg>
